static/assets/img/icons/theme/shopping/mc.svg

<svg height="24" viewBox="0 0 24 24" width="24" xmlns="http://www.w3.org/2000/svg"><g fill="none" fill-rule="evenodd"><path d="m0 0h24v24h-24z" opacity="0"/><g fill="#000"><path d="m10.8226874 8.36941377 1.909745 1.45357291c.6788188-.89185121 1.7268618-1.42298668 2.8675676-1.42298668 1.9882251 0 3.6 1.6117749 3.6 3.6s-1.6117749 3.6-3.6 3.6c-1.0185303 0-1.9636611-.4219453-2.6425959-1.1552324l-1.7610672 1.6305344c1.0959682 1.1837062 2.6632817 1.924698 4.4036631 1.924698 3.3137085 0 6-2.6862915 6-6s-2.6862915-6-6-6c-1.9492144 0-3.6813352.9294879-4.7773126 2.36941377z" fill-rule="nonzero" opacity=".3"/><path d="m8.4 18c-3.3137085 0-6-2.6862915-6-6s2.6862915-6 6-6 6 2.6862915 6 6-2.6862915 6-6 6z"/></g></g></svg>

<svg width="24px" height="24px" viewBox="0 0 24 24" version="1.1" xmlns="http://www.w3.org/2000/svg" xmlns:xlink="http://www.w3.org/1999/xlink">
    <title>Icon For MC</title>
    <g stroke="none" stroke-width="1" fill="none" fill-rule="evenodd">
        <rect opacity="0" x="0" y="0" width="24" height="24"></rect>
        <path d="M10.8226874,8.36941377 L12.7324324,9.82298668 C13.4112512,8.93113547 14.4592942,8.4 15.6,8.4 C17.5882251,8.4 19.2,10.0117749 19.2,12 C19.2,13.9882251 17.5882251,15.6 15.6,15.6 C14.5814697,15.6 13.6363389,15.1780547 12.9574041,14.4447676 L11.1963369,16.075302 C12.2923051,17.2590082 13.8596186,18 15.6,18 C18.9137085,18 21.6,15.3137085 21.6,12 C21.6,8.6862915 18.9137085,6 15.6,6 C13.6507856,6 11.9186648,6.9294879 10.8226874,8.36941377 Z" fill="#000000" fill-rule="nonzero" opacity="0.3"></path>
        <path d="M8.4,18 C5.0862915,18 2.4,15.3137085 2.4,12 C2.4,8.6862915 5.0862915,6 8.4,6 C11.7137085,6 14.4,8.6862915 14.4,12 C14.4,15.3137085 11.7137085,18 8.4,18 Z" fill="#000000"></path>
    </g>
</svg>
